X:1
T:Wonderful Love
T:Wonderful Love
T:George Coles Stebbins
T:Civilla Durfee Martin, 1906
T:Public Domain Courtesy of the Cyber Hymnal™
T:Public Domain Courtesy of the Cyber Hymnal™
C:George Coles Stebbins
Z:Public Domain
Z:Courtesy of the Cyber Hymnal™
%%score ( 1 2 ) ( 3 4 )
L:1/8
Q:1/4=167
M:6/4
K:Ab
V:1 treble 
V:2 treble 
V:3 bass 
V:4 bass 
V:1
 [CE]2 | [Ec]2 [DB]2 [CA]2 [CE]2 [=B,=D]2 [CE]2 | [CF]2 [A,C]2 [B,D]2 [CE]4 [CE]2 | %3
w: 1.~In|love He re- deemed me, the|Sav- ior di- vine, I’m|
w: 2.~In|love He re- deemed me through|shed- ding of blood, From|
w: 3.~In|love He re- deemed me and|made me His own, An|
 [CA]2 [EA]2 [EA]2 [Ec]2 [EB]2 [FA]2 | [=DA]2 [DG]2 [EA]2 [EB]4 [EB]2 | %5
w: trust- ing in Him, life e-|ter- nal is mine; Un-|
w: “far a- way” plac- es he|brought me to God; He|
w: heir to His glo- ry, His|king- dom and throne; Now|
 [Ed]2 [Gc]2 [GB]2 [GB]2 [G=A]2 [GB]2 | [=Ec]2 [EG]2 [GB]2 [FA]4 [CA]2 | %7
w: wor- thy the least of His|gifts to re- ceive— Sal-|
w: found me a sin- ner with|no one to save, And|
w: an- thems of joy to His|name I will sing, A-|
 [=B,A]2 [B,G]2 [B,F]2 [CE]2 [Ed]2 [Ec]2 | [=DB]2 [DF]2 [_DG]2 [CA]6 || %9
w: va- tion is mine as on|Him I be- lieve.|
w: gra- cious- ly, lov- ing- ly|my sins for- gave.|
w: dor- ing my Sav- ior, my|Lord and my king.|
"^Refrain" [Ec]3 [Ec] [Ec]2 [CE]2 [DF]2 [DA]2 | c6- [Ec]4 [Ed]2 | %11
w: ||
w: Won- der- ful, won- der- ful|love! He came|
w: ||
 [Ae]2 [Ec]2 [EB]2 [=DA]2 [DG]2 [FA]2 | B6- [GB]4 [GB]2 | [Ac]2 [AB]2 [Ac]2 [Ae]4 [Ac]>[EB] | %14
w: |||
w: * from the glo- ry a-|bove, To seek|* and to save, and to|
w: |||
 [EA]2 [EB]2 [Ac]2 [Ad]4 !fermata![A=d]2 | [Ae]3 [ce] [Ae]2 [Ge]3 [Ed] [EB]2 | [EA]6- [EA]4 |] %17
w: |||
w: make me His own; O|won- der- ful, won- der- ful|love! *|
w: |||
V:2
 x2 | x12 | x12 | x12 | x12 | x12 | x12 | x12 | x12 || x12 | E2 C2 F2 x6 | x12 | G2 E2 A2 x6 | %13
 x12 | x12 | x12 | x10 |] %17
V:3
 [A,,A,]2 | [A,,A,]2 [A,,A,]2 [A,,A,]2 [A,,A,]2 [A,,A,]2 [A,,A,]2 | %2
w: ~|~ ~ ~ ~ ~ ~|
 [A,,A,]2 [A,,E,]2 [A,,E,]2 [A,,A,]4 [A,,A,]2 | [A,,E,]2 [C,A,]2 [E,C]2 A,2 [G,B,]2 [F,C]2 | %4
w: ~ ~ ~ ~ ~|~ ~ ~ ~ ~ ~|
 [F,B,]2 [B,,B,]2 [F,B,]2 [E,G,]4 [E,G,]2 | [E,B,]2 [E,E]2 [E,D]2 [E,D]2 [E,C]2 [E,D]2 | %6
w: ~ ~ ~ ~ ~|~ ~ ~ ~ ~ ~|
 [C,G,]2 [C,C]2 [C,C]2 [F,C]4 [F,A,]2 | [=D,F,]2 [D,G,]2 [D,A,]2 [E,A,]2 [G,B,]2 A,2 | %8
w: ~ ~ ~ ~ ~|~ ~ ~ ~ ~ ~|
 [F,A,]2 [B,,B,]2 [E,B,]2 [A,,A,]6 || A,3 A, A,2 [A,,A,]2 [D,A,]2 [F,A,]2 | A,6- A,4 [A,B,]2 | %11
w: ~ ~ ~ ~|~ ~ ~ ~ ~ ~|wonderful~love! * ~|
 [A,C]2 A,2 [G,B,]2 [F,B,]2 [F,B,]2 [B,,B,]2 | B,2 G,2 C2 [E,B,]4 [E,E]2 | %13
w: ~ ~ ~ ~ ~ the|glo- ry a- bove *|
 [A,E]2 [A,D]2 [A,E]2 [A,C]4 [A,E]>[G,D] | [A,C]2 [G,D]2 [_G,E]2 [F,D]4 !fermata![_F,=B,]2 | %15
w: ||
 [E,C]3 [E,A,] [E,C]2 [E,B,]3 [E,G,] [E,D]2 | [A,,C]6- [A,,C]4 |] %17
w: ||
V:4
 x2 | x12 | x12 | x6 A,2 x4 | x12 | x12 | x12 | x10 A,2 | x12 || A,3 A, A,2 x6 | A,6- A,4 x2 | %11
 x2 A,2 x8 | E,6- x6 | x12 | x12 | x12 | x10 |] %17

